assets/images/icons/src/flask.svg

<?xml version="1.0" encoding="utf-8"?>
<!-- Generated by IcoMoon.io -->
<!DOCTYPE svg PUBLIC "-//W3C//DTD SVG 1.1//EN" "http://www.w3.org/Graphics/SVG/1.1/DTD/svg11.dtd">
<svg version="1.1" xmlns="http://www.w3.org/2000/svg" xmlns:xlink="http://www.w3.org/1999/xlink" width="13" height="14" viewBox="0 0 13 14">
<path fill="#444444" d="M11.93 11.313q0.438 0.695 0.168 1.191t-1.098 0.496h-9q-0.828 0-1.098-0.496t0.168-1.191l3.93-6.195v-3.117h-0.5q-0.203 0-0.352-0.148t-0.148-0.352 0.148-0.352 0.352-0.148h4q0.203 0 0.352 0.148t0.148 0.352-0.148 0.352-0.352 0.148h-0.5v3.117zM5.844 5.648l-2.125 3.352h5.562l-2.125-3.352-0.156-0.242v-3.406h-1v3.406z"></path>
</svg>

<svg xmlns="http://www.w3.org/2000/svg" width="13" height="14" viewBox="0 0 13 14"><path fill="#444" d="M11.93 11.313q.438.695.168 1.191T11 13H2q-.828 0-1.098-.496t.168-1.191L5 5.118V2.001h-.5q-.203 0-.352-.148T4 1.501t.148-.352.352-.148h4q.203 0 .352.148T9 1.501t-.148.352-.352.148H8v3.117zM5.844 5.648L3.719 9h5.562L7.156 5.648 7 5.406V2H6v3.406z"/></svg>
